X:55
T:De'il among the tailors
R:Reel
O:Scotland
M:4/4
K:A
eg|\
a2eg a2eg|a2ea fedc|dfBf dfBf|dfba gfeg|\
a2eg a2eg|a2ea fedc|
defd ecBA|E2G2 A2::\
ed|\
ceAe ceAe|ceag fedc|
dfBf dfBf|dfba gfed|\
ceAe ceAe|ceag fedc|defd ecBA|E2G2 A2:|
